!!!OTL@@DE: Wanderlied
!!!ONB: Nach der Volksweise: Dort oben auf dem Berg, da horstet der Aar.
!!!ODT: 1827
!!!OMD: M&auml;ssig bewegt
!!!LYR: Justinus Kerner
!!!LDT: 1811
!!!OCL: Erk, Ludwig
!!!GCO: Deutscher Liederschatz, Band 1
**kern	**kern	**kern
*staff3	*staff2	*staff1
*Ipiano	*Ipiano	*Ivox
*>[A,A,B,C,C]	*>[A,A,B,C,C]	*>[A,A,B,C,C]
*>norep[A,B,C]	*>norep[A,B,C]	*>norep[A,B,C]
*>A	*>A	*>A
*clefF4	*clefG2	*clefG2
*k[]	*k[]	*k[]
*C:	*C:	*C:
*M3/4	*M3/4	*M3/4
*MM78	*MM78	*MM78
*^	*	*
8E/L	4C\	(8c/L	(8c/L
8G/J	.	8e/J)	8e/J)
*v	*v	*	*
=1	=1	=1
4C\ 4c\	4e/ 4g/	4g/
4C\ 4c\	4e/ 4g/	4g/
4C\ 4c\	(8f/ 8a/L	(8a/L
.	8e/) 8g/J	8g/J)
=2	=2	=2
4C\ 4G\	8c/ (8e/L	(8e/L
.	&(8g/J&)	8g/J)
4C\ 4G\	4.e/ 4.cc/)	4.cc\
4C\ 4G\	.	.
.	8c/ 8e/	8e/
=3	=3	=3
*	*^	*
4G\	8e/ (8g/L	4B\	(8g/L
.	8d/ 8f/J	.	8f/J)
4GG/	8d/ (8f/L)	4B\	(8f/L
.	8c#/ 8e/J)	.	8e/J)
4G\	8f/L	4B\ 4d\	(8f/L
.	8g/J	.	8g/J)
*	*v	*v	*
=4	=4	=4
4C\ 4G\	4cn/ 4e/	4e/
4CC/	4r	4r
=:|!	=:|!	=:|!
*>B	*>B	*>B
4r	4c/ 4e/	4e/
=5	=5	=5
4GG/	(8B/ 8d/L	(8d/L
.	8b/J)	8b/J)
4G\	4.d/ 4.b/	4.b\
4GG/	.	.
.	8d/ 8b/	8b\
=6	=6	=6
*	*^	*
4C/	(8b/L	4e\	(8b/L
.	8a/J	.	8a/J)
*	*v	*v	*
4C/	4.e/ 4.a/)	4.a/
4C/	.	.
.	8e/ 8a/	8a/
=7	=7	=7
*	*^	*
4D\	8f#/ (8a/L	4d\	(8a/L
.	8g/ 8b/J	.	8b/J)
*	*v	*v	*
4D\	4d/ 4a/ 4cc/)	4cc\
4D\	4c/ 4d/ 4f#/	4f#/
=8	=8	=8
4GG/	2B/ 2d/ 2g/	2g/
4G\	.	.
4r	4B/ 4d/	4d/
=9	=9	=9
4GG/	(8B/ 8d/L	(8d/L
.	8b/J	8b/J)
4G\	4.d/) 4.b/	4.b\
4GG/	.	.
.	8d#/ 8b/	8b\
=10	=10	=10
*	*^	*
4C/	(8b/L	4e\	(8b/L
.	8a/J	.	8a/J)
*	*v	*v	*
4C/	4.e/ 4.a/)	4.a/
4C/	.	.
.	8e/ 8a/	8a/
=11	=11	=11
*	*^	*
4D\	8f#/ (8a/L	4d\	(8a/L
.	8g/ 8b/J	.	8b/J)
*	*v	*v	*
4DD/	4d/ 4a/ 4cc/)	4cc\
4D\	4c/ 4d/ 4f#/	4f#/
=12	=12	=12
4GG/	2B/ 2d/ 2g/	2g/
4G\	.	.
4r	8r	8r
.	8e/ 8g/	8g/
=13	=13	=13
4GG/ 4G/	(8fn/ 8a/L	(8a/L
.	8e/) 8g/J	8g/J)
4BB\ 4G\	4.d/ 4.f/	4.f/
4GG/ 4G/	.	.
.	8d/ 8f/	8f/
=14	=14	=14
4C\ 4G\	8c/ (8e/L	(8e/L
.	8g/J	8g/J)
4C\ 4G\	4.e/ 4.cc/)	4.cc\
4C\ 4G\	.	.
.	8c/ 8e/	8e/
=15	=15	=15
*	*^	*
4G\	8e/ (8g/L	4B\	(8g/L
.	8d/ 8f/J	.	8f/J)
4GG/	8d/ (8f/L)	4B\	(8f/L
.	8c#/ 8e/J	.	8e/J)
4G\	8f/L)	4B\ 4d\	(8f/L
.	8g/J	.	8g/J)
*	*v	*v	*
=16	=16	=16
4C\ 4G\	2cn/ 2e/	2e/
4CC/	.	.
4C\ 4G\	4e/ 4g/	4g/
=17	=17	=17
4C\ 4c\	(8e/ 8g/L	(8g\L
.	8ee/J)	8ee\J)
4C\ 4c\	4.g\ 4.ee\	4.ee\
4C\ 4c\	.	.
.	8g#\ 8ee\	8ee\
=18	=18	=18
*	*^	*
4FF/ 4F/	(8ee/L	4a\	(8ee\L
.	8dd/J	.	8dd\J)
4F\ 4A\	2ryy	4.a\ 4.dd\)	4.dd\
4F\ 4A\	.	.	.
.	.	8a\ 8dd\	8dd\
=19	=19	=19	=19
4G\	8b/ (8dd/L	4g\	(8dd\L
.	8cc/ 8ee/J)	.	8ee\J)
*	*v	*v	*
4GG/	4g\ 4dd\ 4ff\	4ff\
4GG/ 4G/	4f/ 4g/ 4b/	4b\
=20	=20	=20
4C/	2e/ 2g/ 2cc/	2cc\
4CC/	.	.
4r	8r	8r
.	8g/	8g/
=21	=21	=21
*	*^	*
2C;\ 2G;\	(8g/L	2e\	(8g\L
.	8ee/J	.	8ee\J
.	4cc;/)	.	4cc;\)
*	*v	*v	*
=!|:	=!|:	=!|:
*>C	*>C	*>C
8G\L	8g/L	8g/
8G\J	8g/J	8g/
=22	=22	=22
8.C\ 8.G\L	8.e/ 8.cc/L	8.cc\
16C\ 16G\Jk	16e/ 16cc/Jk	16cc\
4C\ 4G\	4e/ 4cc/	4cc\
8E\ 8G\L	8g/ 8b/L	8b\
8E\ 8G\J	8g/ 8b/J	8b\
=23	=23	=23
8.F\ 8.A\L	8.c/ 8.f/ 8.a/L	8.a/
16F\Jk	16c/ 16f/ 16a/Jk	16a/
4F\	4c/ 4f/ 4a/	4a/
8C/L	8c/ 8e/ 8g/L	8g/
8C/J	8c/ 8e/ 8g/J	8g/
=24	=24	=24
*	*^	*
4GG/	8.d/ 8.f/L	4B\	8.f/
.	16c#/ 16e/Jk	.	16e/
4G\	8.d/ 8.f/L	4B\	8.f/
.	16c#/ 16e/Jk	.	16e/
4GG/	8.d/ 8.f/L	4B\	8.f/
.	16f/ 16a/Jk	.	16a/
*	*v	*v	*
=25	=25	=25
4C/	2cn/ 2e/ 2g/	2g/
4CC/	.	.
8G\L	8g/L	8g/
8G\J	8g/J	8g/
=26	=26	=26
8.C\ 8.c\L	8.e/ 8.g/ 8.ee/L	8.ee\
16C\ 16c\Jk	16e/ 16g/ 16ee/Jk	16ee\
4C\ 4c\	4e/ 4g/ 4ee/	4ee\
8E\ 8B\L	8e/ 8g#/ 8dd/L	8dd\
8E\ 8B\J	8e/ 8g#/ 8dd/J	8dd\
=27	=27	=27
8.AA\ 8.A\L	8.e/ 8.a/ 8.cc/L	8.cc\
16AA\ 16A\Jk	16e/ 16a/ 16cc/Jk	16cc\
4AA\ 4A\	4e/ 4a/ 4cc/	4cc\
8.E\L	8g\ 8cc\ 8ee\L	8ee\
.	8g\ 8cc\ 8ee\J	8ee\
16F\Jk	.	.
=28	=28	=28
4G\	8.f/ 8.g/ 8.dd/L	8.dd\
.	16e/ 16cc/Jk	16cc\
4G\	8.f/ 8.g/ 8.dd/L	8.dd\
.	16e/ 16cc/Jk	16cc\
4GG/ 4G/	8.f/ 8.g/ 8.dd/L	8.dd\
.	16g/ 16ee/Jk	16ee\
=29	=29	=29
2C\ 2G\	2e/ 2g/ 2cc/	2cc\
==:|!	==:|!	==:|!
*-	*-	*-
!!!ENC: Craig Stuart Sapp
!!!END: 2004/06/28/
!!!EFL: 200/651
